X: 1571
T: Angus Chisholm's
R: polka
M: 2/4
K: Dmajor
f/g/|:a/^g/a/b/ ad'|f2 a2|d/c/d/e/ fd|A2- AF|
G/F/G/A/ BG|FA dA|1 Be e/f/g/f/|(3e/f/e/ (3d/c/B/ Af/g/:|2 Be e/f/g/e/|d/c/d/e/ dF/G/||
A/^G/A/B/ Af|A2 f2|d/c/d/e/ db|a4|
bb aa|gg f2|g/f/g/a/ g/f/e/d/|c/d/e/f/ (3e/f/e/ (3d/c/B/|
A/^G/A/B/ Af|A2f2|d/c/d/e/ db|a2- aa/a/|
bA A/A/A/A/|aA A/A/A/A/|g/f/e/d/ ca|d2- df/g/||

